Adwaita++-Light/panel/24/qnapi-panel.svg

<svg height="24" width="24" xmlns="http://www.w3.org/2000/svg">
  <path d="m4.888672 5.0000002c-.49249 0-.888672.3903-.888672.875v11.1249998c0 .48475.396442.98462.888672 1h8.111328l1.5 2 1.5-2h3.111328c.492 0 .888672-.515.888672-1v-11.1249998c0-.4847-.395672-.875-.888672-.875zm2.111328 3h10v.9999998h-10zm0 2.9999998h10v1h-10zm0 3h6v1h-6z" fill="#444"/>
</svg>

<svg xmlns="http://www.w3.org/2000/svg" width="24" height="24" version="1.1">
 <defs>
  <style id="current-color-scheme" type="text/css">
   .ColorScheme-Text { color:#444444; } .ColorScheme-Highlight { color:#4285f4; }
  </style>
 </defs>
 <path style="fill:currentColor" class="ColorScheme-Text" d="M 4.888672,5.0000002 C 4.396182,5.0000002 4,5.3903002 4,5.8750002 L 4,17 c 0,0.48475 0.396442,0.98462 0.888672,1 L 13,18 l 1.5,2 1.5,-2 3.111328,0 C 19.603328,18 20,17.485 20,17 L 20,5.8750002 c 0,-0.4847 -0.395672,-0.875 -0.888672,-0.875 l -14.222656,0 z m 2.111328,3 10,0 L 17,9 7,9 7,8.0000002 Z M 7,11 l 10,0 0,1 -10,0 0,-1 z m 0,3 6,0 0,1 -6,0 0,-1 z"/>
</svg>
